X: 876
T: Gönül Düştü
C: Kemençeci Usta Yani
O: Turkey
F: http://compmusic.upf.edu/node/140
N: huzzam--sarki--aksak--gonul_dustu--kemenceci_usta_yani
N: makam= huzzam
N: form= sarki
N: usul= aksak = 9/8
M: 9/8
L: 1/16
K: C _1/4B _3/4e ^3/4f 
Q: 1/4=132
%%MIDI tuningsystem comma53
B4 G2AB dcBA GABc d2 | d3_7/8edc cB^fe ede4df  | 
w:   |   | 
_7/8e2z2 d2e2 e2d2 g^fed c2 | B2 c2c3/2d/ cBA4_7/8ed cB^f2  | 
w:   |   | 
_7/8e3/2d/ce d3/2c/Bd c3/2B/^Ac B2dc BA | \
w:   | 
B4G2 ABdc BAGA Bcd2  | 
w:   | 
d3_7/8e dccB ^feed e4 df | _7/8e2 z2d2 e2e2 d2g^f edc2  | 
w:   |   | 
B2c2 c3/2d/cB A4 _7/8edcB ^f2 | _7/8e3/2d/ ced3/2c/ Bdc3/2B/ ^AcB4z2  | 
w:   |   | 
^f4 fg2f f^ede f4 z2 | g4^ab agab c'/d'/c'/b/b4ac'  | 
w:   |   | 
b2z2 d'c'c'b c'bag ag^f_7/8e d2 | \
w:   | 
B2 c4 (3dcBA4_7/8ed cB^f2  | 
w:   | 
_7/8e3/2d/ce d3/2c/Bd c3/2B/^Ac B4 z2 | \
w:   | 
g2 ^fag4d/c/d/_7/8e/ dcB^A B2B2  | 
w:   | 
agg^f f_7/8eed dccB d2e2 df | _7/8e2 z2d2 e2e2 d2g^f edc2  | 
w:   |   | 
B2c2 c3/2d/cB A4 _7/8edcB ^f2 | _7/8e3/2d/ ced3/2c/ Bdc3/2B/ ^AcB4z2  | 
w:   |   | 
|


